public/images/svg/logo.svg

<svg width="1.875em" height="1.5em" viewBox="0 0 250 196" fill="none" xmlns="http://www.w3.org/2000/svg">
    <path fill-rule="evenodd" clip-rule="evenodd"
          d="M12.3002 1.25469L56.655 28.6432C59.0349 30.1128 60.4839 32.711 60.4839 35.5089V160.63C60.4839 163.468 58.9941 166.097 56.5603 167.553L12.2055 194.107C8.3836 196.395 3.43136 195.15 1.14435 191.327C0.395485 190.075 0 188.643 0 187.184V8.12039C0 3.66447 3.61061 0.0522461 8.06452 0.0522461C9.56056 0.0522461 11.0271 0.468577 12.3002 1.25469Z"
          fill="#888"></path>
    <path opacity="0.077704" fill-rule="evenodd" clip-rule="evenodd" d="M0 65.2656L60.4839 99.9629V133.979L0 65.2656Z"
          fill="black"></path>
    <path opacity="0.077704" fill-rule="evenodd" clip-rule="evenodd" d="M0 65.2656L60.4839 99.0795V119.859L0 65.2656Z"
          fill="black"></path>
    <path fill-rule="evenodd" clip-rule="evenodd"
          d="M237.71 1.22393L193.355 28.5207C190.97 29.9889 189.516 32.5905 189.516 35.3927V160.631C189.516 163.469 191.006 166.098 193.44 167.555L237.794 194.108C241.616 196.396 246.569 195.151 248.856 191.328C249.605 190.076 250 188.644 250 187.185V8.09597C250 3.64006 246.389 0.027832 241.935 0.027832C240.444 0.027832 238.981 0.441882 237.71 1.22393Z"
          fill="#888"></path>
    <path opacity="0.077704" fill-rule="evenodd" clip-rule="evenodd"
          d="M250 65.2656L189.516 99.8897V135.006L250 65.2656Z" fill="black"></path>
    <path opacity="0.077704" fill-rule="evenodd" clip-rule="evenodd"
          d="M250 65.2656L189.516 99.0497V120.886L250 65.2656Z" fill="black"></path>
    <path fill-rule="evenodd" clip-rule="evenodd"
          d="M12.2787 1.18923L125 70.3075V136.87L0 65.2465V8.06814C0 3.61223 3.61061 0 8.06452 0C9.552 0 11.0105 0.411583 12.2787 1.18923Z"
          fill="#888"></path>
    <path fill-rule="evenodd" clip-rule="evenodd"
          d="M12.2787 1.18923L125 70.3075V136.87L0 65.2465V8.06814C0 3.61223 3.61061 0 8.06452 0C9.552 0 11.0105 0.411583 12.2787 1.18923Z"
          fill="white" fill-opacity="0.15"></path>
    <path fill-rule="evenodd" clip-rule="evenodd"
          d="M237.721 1.18923L125 70.3075V136.87L250 65.2465V8.06814C250 3.61223 246.389 0 241.935 0C240.448 0 238.99 0.411583 237.721 1.18923Z"
          fill="#888"></path>
    <path fill-rule="evenodd" clip-rule="evenodd"
          d="M237.721 1.18923L125 70.3075V136.87L250 65.2465V8.06814C250 3.61223 246.389 0 241.935 0C240.448 0 238.99 0.411583 237.721 1.18923Z"
          fill="white" fill-opacity="0.3"></path>
</svg>

<svg xmlns="http://www.w3.org/2000/svg" fill="none" viewBox="0 0 250 196"><path d="m12.3 1.255 44.355 27.388a8.07 8.07 0 0 1 3.829 6.866V160.63a8.066 8.066 0 0 1-3.924 6.923l-44.355 26.554A8.063 8.063 0 0 1 0 187.184V8.12a8.066 8.066 0 0 1 12.3-6.865Z" fill="#888" fill-rule="evenodd" clip-rule="evenodd"/><path d="m0 65.266 60.484 34.697v34.016L0 65.266Z" fill="#000" fill-rule="evenodd" clip-rule="evenodd" opacity=".078"/><path d="m0 65.266 60.484 33.813v20.78L0 65.266Z" fill="#000" fill-rule="evenodd" clip-rule="evenodd" opacity=".078"/><path d="M237.71 1.224 193.355 28.52a8.07 8.07 0 0 0-3.839 6.872V160.63a8.07 8.07 0 0 0 3.924 6.924l44.354 26.553A8.064 8.064 0 0 0 250 187.185V8.096a8.067 8.067 0 0 0-12.29-6.872Z" fill="#888" fill-rule="evenodd" clip-rule="evenodd"/><path d="M250 65.266 189.516 99.89v35.116L250 65.266Z" fill="#000" fill-rule="evenodd" clip-rule="evenodd" opacity=".078"/><path d="M250 65.266 189.516 99.05v21.836L250 65.266Z" fill="#000" fill-rule="evenodd" clip-rule="evenodd" opacity=".078"/><path d="M12.279 1.19 125 70.307v66.562L0 65.246V8.069A8.066 8.066 0 0 1 12.279 1.19Z" fill="#888" fill-rule="evenodd" clip-rule="evenodd"/><path d="M12.279 1.19 125 70.307v66.562L0 65.246V8.069A8.066 8.066 0 0 1 12.279 1.19Z" fill="#fff" fill-opacity=".15" fill-rule="evenodd" clip-rule="evenodd"/><path d="M237.721 1.19 125 70.307v66.562l125-71.624V8.069a8.067 8.067 0 0 0-12.279-6.879Z" fill="#888" fill-rule="evenodd" clip-rule="evenodd"/><path d="M237.721 1.19 125 70.307v66.562l125-71.624V8.069a8.067 8.067 0 0 0-12.279-6.879Z" fill="#fff" fill-opacity=".3" fill-rule="evenodd" clip-rule="evenodd"/></svg>
